svg/justvector/w3.svg

<svg xmlns="http://www.w3.org/2000/svg" viewBox="0 0 100 100" enable-background="new 0 0 100 100"><path d="m38.34 16.5l11.938 40.703 11.941-40.703h8.643 20.506v4.174l-10.577 21.05c4.277 1.38 8.322 3.89 10.518 7.516 2.195 3.633 3.693 7.902 3.693 12.799 0 6.06-1.406 11.141-4.619 15.271-3.209 4.124-7.264 6.188-12.371 6.188-3.844 0-7.135-1.226-9.992-3.671-2.855-2.451-4.938-5.764-6.309-9.952l6.758-2.803c.99 2.533 2.299 4.523 3.922 5.985 1.615 1.458 3.525 2.181 5.721 2.181 2.307 0 4.26-1.291 5.85-3.875 1.59-2.591 2.389-5.698 2.389-9.332 0-4.02-.857-8.348-2.555-10.544-1.975-2.592-5.078-5.101-9.305-5.101h-5.684v-1.526l13.916-20.891h-13.912l-.791.065-16.92 55.976h-.822l-12.354-41.45-12.344 41.45h-.826l-19.752-63.51h8.641l11.938 40.768 8.07-27.448-3.952-13.32h8.645"/></svg>

<?xml version="1.0" encoding="iso-8859-1"?>
<!-- Generator: Adobe Illustrator 15.0.0, SVG Export Plug-In . SVG Version: 6.00 Build 0)  -->
<!DOCTYPE svg PUBLIC "-//W3C//DTD SVG 1.1//EN" "http://www.w3.org/Graphics/SVG/1.1/DTD/svg11.dtd">
<svg version="1.1" id="Icons" xmlns="http://www.w3.org/2000/svg" xmlns:xlink="http://www.w3.org/1999/xlink" x="0px" y="0px"
	 width="100px" height="100px" viewBox="0 0 100 100" style="enable-background:new 0 0 100 100;" xml:space="preserve">
<path id="W3" d="M38.338,16.5l11.938,40.703L62.217,16.5h8.643h20.506v4.174L80.789,41.726c4.277,1.38,8.322,3.89,10.518,7.516
	C93.502,52.875,95,57.144,95,62.041c0,6.056-1.406,11.141-4.619,15.271C87.172,81.436,83.117,83.5,78.01,83.5
	c-3.844,0-7.135-1.226-9.992-3.671c-2.855-2.451-4.938-5.764-6.309-9.952l6.758-2.803c0.99,2.533,2.299,4.523,3.922,5.985
	c1.615,1.458,3.525,2.181,5.721,2.181c2.307,0,4.26-1.291,5.85-3.875c1.59-2.591,2.389-5.698,2.389-9.332
	c0-4.015-0.857-8.348-2.555-10.544c-1.975-2.592-5.078-5.101-9.305-5.101h-5.684v-1.526l13.916-20.891H68.809l-0.791,0.065
	l-16.92,55.976h-0.822L37.922,38.565L25.578,80.013h-0.826L5,16.5h8.641l11.938,40.768l8.066-27.448L29.693,16.5H38.338z"/>
</svg>
